src/assets/duotone/SidebarRight.svg

<svg width="24" height="24" viewBox="0 0 24 24"  xmlns="http://www.w3.org/2000/svg">
<path opacity="0.4" d="M2 7.81V16.19C2 19.83 4.17 22 7.81 22H16.19C16.39 22 16.59 21.99 16.78 21.98C18.01 21.9 19.05 21.55 19.87 20.95C20.29 20.66 20.66 20.29 20.95 19.87C21.64 18.92 22 17.68 22 16.19V7.81C22 4.37 20.06 2.24 16.78 2.03C16.59 2.01 16.39 2 16.19 2H7.81C6.32 2 5.08 2.36 4.13 3.05C3.71 3.34 3.34 3.71 3.05 4.13C2.36 5.08 2 6.32 2 7.81Z" />
<path d="M15.2798 2V22H16.1898C16.3898 22 16.5898 21.99 16.7798 21.98V2.03C16.5898 2.01 16.3898 2 16.1898 2H15.2798Z" />
<path d="M9.03021 15.3099C9.22021 15.3099 9.41022 15.2399 9.56022 15.0899L12.1202 12.5299C12.4102 12.2399 12.4102 11.7599 12.1202 11.4699L9.56022 8.90988C9.27022 8.61988 8.79021 8.61988 8.50021 8.90988C8.21021 9.19988 8.21021 9.67988 8.50021 9.96988L10.5202 11.9999L8.50021 14.0299C8.21021 14.3199 8.21021 14.7999 8.50021 15.0899C8.64021 15.2399 8.83021 15.3099 9.03021 15.3099Z" />
</svg>

<?xml version="1.0" encoding="UTF-8"?>
<svg width="24" height="24" viewBox="0 0 24 24" xmlns="http://www.w3.org/2000/svg">
 <path d="m2 7.81v8.38c0 3.64 2.17 5.81 5.81 5.81h8.38c0.2 0 0.4-0.01 0.59-0.02 1.23-0.08 2.27-0.43 3.09-1.03 0.42-0.29 0.79-0.66 1.08-1.08 0.69-0.95 1.05-2.19 1.05-3.68v-8.38c0-3.44-1.94-5.57-5.22-5.78-0.19-0.02-0.39-0.03-0.59-0.03h-8.38c-1.49 0-2.73 0.36-3.68 1.05-0.42 0.29-0.79 0.66-1.08 1.08-0.69 0.95-1.05 2.19-1.05 3.68z" opacity=".4"/>
 <path d="m15.28 2v20h0.91c0.2 0 0.4-0.01 0.59-0.02v-19.95c-0.19-0.02-0.39-0.03-0.59-0.03h-0.91z"/>
 <path d="m9.0302 15.31c0.19 0 0.38001-0.07 0.53001-0.22l2.56-2.56c0.29-0.29 0.29-0.77 0-1.06l-2.56-2.56c-0.29-0.29-0.77001-0.29-1.06 0s-0.29 0.77 0 1.06l2.02 2.03-2.02 2.03c-0.29 0.29-0.29 0.77 0 1.06 0.14 0.15 0.33 0.22 0.53 0.22z"/>
</svg>
